X:115
T:Dark Corridors
C:John Krstenansky
N:Solo Mandolin Piece Mandolin World News
R:bluegrass
L:1/8
Q:1/4=150
M:3/4
K:C
"adagio"g2 c2 zd | ^df d=d c2 | g2 c2 zd | ^dB c=d c^G | G2 g2 c2 | zd ^df d=d | 
c2 g2 ^g2 | zf gd ^dB | c2 C2 C^D | DF ^DG F=D | C^D =DF ^DB, | C2 C^D =DF | ^DG ^GF =GD | 
F^F GB c2 | cG g^d c2 | z^d =df GB | cG g2 cG | ^dB cG gd | d^F G^G =F^D | DG, C^D G^F | 
Bc ^FG df | ^d=d c^F G2 | C^D G^F ^d=d | Bc df ^g=g | _bg c'2 cG | ^DG c^d =dc | 
BG ^FG df | ^d=d cG ^DG | c^d =dc B^g | gf ^dG c2 | C^D GB c^d | g^d =df ^d=d | 
c^g =gB C^D | GB cG gc | ^gf d_b [c'2^d2G2] | 


